X: 39
T: The Royal salute
R: reel
M: C
L: 1/8
Z: 2011 John Chambers <jc:trillian.mit.edu>
B: Charles & Samuel Thompson eds "Twenty Four Country Dances", London 1774, p.20 #1
K: A
% - - - - - - - - - - - - - - - - - - - - - - - - -
e2 |\
(dc)(BA) (cB)(AG) | A2E2 E2A2 | F2F2 F2e2 | c4 B2e2 |
(dc)(BA) (cB)(AG) | A2E2 E2a2 | (ag)(fe) gfe^d | e6 :|
|: Bc |\
d2d2 d2d2 | d2c2 e4 | f3e dcBA | G3F E2e2 |
fdcd fagb | a2gf e2d2 | (dc)(BA) (cB)(AG) | A6 :|
% - - - - - - - - Dance description - - - - - - - -
%%begintext align
%% Lead down 2 Cu. & ballance Allemand .|. up
%% again & ballance Allemand :|. 3. 1st Cu. ballance
%% all round .|: cast off Right & Left :|:
%%endtext

%%sep 1 1 500
